assets/img/mail-ico.svg

<svg width="20" height="20" viewBox="0 0 20 20" fill="none" xmlns="http://www.w3.org/2000/svg">
<path fill-rule="evenodd" clip-rule="evenodd" d="M1.875 4.375C1.875 4.02982 2.15482 3.75 2.5 3.75H17.5C17.8452 3.75 18.125 4.02982 18.125 4.375V15C18.125 15.3315 17.9933 15.6495 17.7589 15.8839C17.5245 16.1183 17.2065 16.25 16.875 16.25H3.125C2.79348 16.25 2.47554 16.1183 2.24112 15.8839C2.0067 15.6495 1.875 15.3315 1.875 15V4.375ZM3.125 5V15H16.875V5H3.125Z" fill="white"/>
<path fill-rule="evenodd" clip-rule="evenodd" d="M2.03928 3.95268C2.27253 3.69823 2.66788 3.68104 2.92233 3.91428L10 10.4021L17.0777 3.91428C17.3321 3.68104 17.7275 3.69823 17.9607 3.95268C18.194 4.20713 18.1768 4.60248 17.9223 4.83573L10.4223 11.7107C10.1834 11.9298 9.81663 11.9298 9.57768 11.7107L2.07768 4.83573C1.82323 4.60248 1.80604 4.20713 2.03928 3.95268Z" fill="white"/>
</svg>

<svg xmlns="http://www.w3.org/2000/svg" width="20" height="20" fill="none"><path fill="#fff" fill-rule="evenodd" d="M1.875 4.375c0-.345.28-.625.625-.625h15c.345 0 .625.28.625.625V15a1.25 1.25 0 0 1-1.25 1.25H3.125A1.25 1.25 0 0 1 1.875 15V4.375ZM3.125 5v10h13.75V5H3.125Z" clip-rule="evenodd"/><path fill="#fff" fill-rule="evenodd" d="M2.04 3.953a.625.625 0 0 1 .882-.039L10 10.402l7.078-6.488a.625.625 0 1 1 .844.922l-7.5 6.875a.625.625 0 0 1-.844 0l-7.5-6.875a.625.625 0 0 1-.039-.883Z" clip-rule="evenodd"/></svg>
